briefcase-minus-outline.svg

<svg fill="currentColor" viewBox="0 0 24 24"><path d="M10 2h4a2 2 0 0 1 2 2v2h4a2 2 0 0 1 2 2v5.53a5.7 5.7 0 0 0-2-1.19V8H4v11h8.08c.12.72.37 1.39.72 2H4a2 2 0 0 1-2-2V8a2 2 0 0 1 2-2h4V4a2 2 0 0 1 2-2m4 4V4h-4v2zm0 11h8v2h-8z"/></svg>

<svg  viewBox="0 0 24 24" fill="currentColor"><path  d="M10,2H14A2,2 0 0,1 16,4V6H20A2,2 0 0,1 22,8V13.53C21.42,13 20.75,12.6 20,12.34V8H4V19H12.08C12.2,19.72 12.45,20.39 12.8,21H4A2,2 0 0,1 2,19V8A2,2 0 0,1 4,6H8V4A2,2 0 0,1 10,2M14,6V4H10V6H14M14,17H22V19H14V17Z"/></svg>
